wp-content/themes/bsm-child/assets/images/m1.svg

<?xml version="1.0" encoding="UTF-8"?>
<svg id="Layer_2" data-name="Layer 2" xmlns="http://www.w3.org/2000/svg" viewBox="0 0 75.27 67.93">
  <defs>
    <style>
      .cls-1 {
        fill: #000;
        stroke-width: 0px;
      }
    </style>
  </defs>
  <g id="sonrisas">
    <path class="cls-1" d="M25.13,34.37L8.15,5.57c-.41-.54-.68-.95-.95-1.22-.41-.27-.82-.41-1.36-.41-.68,0-1.09.27-1.49.82-.41.54-.54,1.22-.27,1.9l23.37,57.47c.27.68.41,1.22.41,1.63,0,.68-.27,1.22-.68,1.63-.41.41-.95.54-1.36.54H2.17c-.68,0-1.22-.27-1.63-.68-.41-.41-.54-.82-.54-1.49V5.84c0-1.77.68-3.12,1.9-4.21,1.22-1.09,2.58-1.63,3.8-1.63,1.09,0,2.04.14,2.99.54.82.41,1.77,1.22,2.99,2.17l23.5,19.02c1.09.95,1.9,1.36,2.45,1.36s1.36-.41,2.45-1.36L63.58,2.72c1.22-.95,2.17-1.77,3.12-2.17.82-.41,1.77-.54,2.85-.54,1.22,0,2.58.54,3.8,1.63,1.22,1.09,1.9,2.45,1.9,4.21v59.92c0,.68-.14,1.09-.54,1.49-.41.41-.95.68-1.63.68h-23.64c-.41,0-.95-.14-1.36-.54-.41-.41-.68-.95-.68-1.63,0-.41.14-.95.41-1.63L71.19,6.66c.1-.25.14-.41.14-.68,0-.68-.14-1.09-.54-1.49-.41-.41-.82-.54-1.36-.54s-.95.14-1.22.41c-.41.27-.68.68-1.09,1.22l-16.98,28.8c-1.77,2.99-3.4,5.3-5.16,6.79-1.77,1.49-4.21,2.31-7.34,2.31s-5.43-.82-7.2-2.31c-1.77-1.49-3.53-3.8-5.3-6.79Z"/>
  </g>
</svg>

<?xml version="1.0" encoding="UTF-8"?>
<svg width="76px" height="68px" viewBox="0 0 76 68" version="1.1" xmlns="http://www.w3.org/2000/svg" xmlns:xlink="http://www.w3.org/1999/xlink">
    <title>m1</title>
    <g id="Page-1" stroke="none" stroke-width="1" fill="none" fill-rule="evenodd">
        <g id="m1" fill="#000000" fill-rule="nonzero">
            <path d="M25.13,34.37 L8.15,5.57 C7.74,5.03 7.47,4.62 7.2,4.35 C6.79,4.08 6.38,3.94 5.84,3.94 C5.16,3.94 4.75,4.21 4.35,4.76 C3.94,5.3 3.81,5.98 4.08,6.66 L27.45,64.13 C27.72,64.81 27.86,65.35 27.86,65.76 C27.86,66.44 27.59,66.98 27.18,67.39 C26.77,67.8 26.23,67.93 25.82,67.93 L2.17,67.93 C1.49,67.93 0.95,67.66 0.54,67.25 C0.13,66.84 0,66.43 0,65.76 L0,5.84 C0,4.07 0.68,2.72 1.9,1.63 C3.12,0.54 4.48,0 5.7,0 C6.79,0 7.74,0.14 8.69,0.54 C9.51,0.95 10.46,1.76 11.68,2.71 L35.18,21.73 C36.27,22.68 37.08,23.09 37.63,23.09 C38.18,23.09 38.99,22.68 40.08,21.73 L63.58,2.72 C64.8,1.77 65.75,0.95 66.7,0.55 C67.52,0.14 68.47,0.01 69.55,0.01 C70.77,0.01 72.13,0.55 73.35,1.64 C74.57,2.73 75.25,4.09 75.25,5.85 L75.25,65.77 C75.25,66.45 75.11,66.86 74.71,67.26 C74.3,67.67 73.76,67.94 73.08,67.94 L49.44,67.94 C49.03,67.94 48.49,67.8 48.08,67.4 C47.67,66.99 47.4,66.45 47.4,65.77 C47.4,65.36 47.54,64.82 47.81,64.14 L71.19,6.66 C71.29,6.41 71.33,6.25 71.33,5.98 C71.33,5.3 71.19,4.89 70.79,4.49 C70.38,4.08 69.97,3.95 69.43,3.95 C68.89,3.95 68.48,4.09 68.21,4.36 C67.8,4.63 67.53,5.04 67.12,5.58 L50.14,34.38 C48.37,37.37 46.74,39.68 44.98,41.17 C43.21,42.66 40.77,43.48 37.64,43.48 C34.51,43.48 32.21,42.66 30.44,41.17 C28.67,39.68 26.91,37.37 25.14,34.38 L25.13,34.37 Z" id="Path"></path>
        </g>
    </g>
</svg>
